icons/icon-upload.svg

<!-- Generated by IcoMoon.io -->
<svg version="1.1" xmlns="http://www.w3.org/2000/svg" width="32" height="32" viewBox="0 0 32 32">
<title>icon-upload</title>
<path d="M23.328 9.729l-7.328-7.329-7.312 7.313 2.048 2.16 2.816-2.832 0.848-1.904v15.92h3.2v-15.952l0.784 1.872 2.88 2.88 2.064-2.128z"></path>
<path d="M28.8 20v6.4h-25.6v-6.4h-3.2v9.6h32v-9.6h-3.2z"></path>
</svg>

<?xml version="1.0" encoding="utf-8"?>
<!-- Generator: Adobe Illustrator 16.0.0, SVG Export Plug-In . SVG Version: 6.00 Build 0)  -->
<!DOCTYPE svg PUBLIC "-//W3C//DTD SVG 1.1//EN" "http://www.w3.org/Graphics/SVG/1.1/DTD/svg11.dtd">
<svg version="1.1" id="Layer_1" xmlns="http://www.w3.org/2000/svg" xmlns:xlink="http://www.w3.org/1999/xlink" x="0px" y="0px"
	 width="32px" height="32px" viewBox="0 0 32 32" enable-background="new 0 0 32 32" xml:space="preserve">
<title>icon-upload</title>
<path d="M23.328,9.729L16,2.4L8.688,9.713l2.048,2.16l2.816-2.832L14.4,7.137v15.92h3.2V7.105l0.784,1.872l2.88,2.88L23.328,9.729z"
	/>
<path d="M28.8,20v6.4H3.2V20H0v9.6h32V20H28.8z"/>
</svg>
